dist/images/newsletter.svg

<?xml version="1.0" encoding="UTF-8"?>
<svg width="17px" height="17px" viewBox="0 0 17 17" version="1.1" xmlns="http://www.w3.org/2000/svg" xmlns:xlink="http://www.w3.org/1999/xlink">
    <!-- Generator: Sketch 62 (91390) - https://sketch.com -->
    <title>newsletter</title>
    <desc>Created with Sketch.</desc>
    <g id="Design-V1" stroke="none" stroke-width="1" fill="none" fill-rule="evenodd">
        <g id="Home-Page---June-2020" transform="translate(-1202.000000, -5046.000000)" fill="#53C999" fill-rule="nonzero">
            <g id="Group-9-Copy" transform="translate(1191.000000, 5034.500000)">
                <path d="M17.79686,27.9999952 C18.0156095,27.9999952 18.1979005,27.9062455 18.3437337,27.7187459 L18.3437337,27.7187459 L20.312479,25.3125016 L24.2187197,26.9374978 C24.4270527,27.041664 24.6405937,27.0312475 24.8593431,26.9062478 C25.0780926,26.7812481 25.2083008,26.6041651 25.2499672,26.3749991 L25.2499672,26.3749991 L27.4999619,12.8750313 C27.5416283,12.562532 27.4322535,12.3177411 27.1718376,12.140658 C26.9114217,11.963575 26.6457974,11.94795 26.3749645,12.0937832 L26.3749645,12.0937832 L11.906249,20.4687632 C11.6145832,20.6145963 11.4791666,20.8437623 11.5,21.1562615 C11.5208334,21.4687608 11.6770831,21.6875103 11.9687489,21.81251 L11.9687489,21.81251 L15.281241,23.1875067 L24.2499696,15.2812756 C24.3333029,15.2187757 24.4166357,15.2239842 24.499969,15.2969005 C24.5833023,15.3698169 24.5937188,15.4479417 24.5312189,15.531275 L24.5312189,15.531275 L16.9999869,24.7187531 L16.9999869,27.2187471 C16.9999869,27.4687465 17.0781117,27.6614545 17.2343613,27.7968707 C17.390611,27.9322869 17.5781105,27.9999952 17.79686,27.9999952 Z" id="newsletter"></path>
            </g>
        </g>
    </g>
</svg>

<svg width="17" height="17" viewBox="0 0 17 17" version="1.1" xmlns="http://www.w3.org/2000/svg"><g id="Design-V1" stroke="none" stroke-width="1" fill="none" fill-rule="evenodd"><g id="Home-Page---June-2020" transform="translate(-1202 -5046)" fill="#53C999" fill-rule="nonzero"><g id="Group-9-Copy" transform="translate(1191 5034.5)"><path d="M17.797 28a.667.667 0 00.547-.281l1.968-2.406 3.907 1.624c.208.105.422.094.64-.03a.747.747 0 00.391-.532l2.25-13.5a.714.714 0 00-.328-.734c-.26-.177-.526-.193-.797-.047l-14.469 8.375c-.291.146-.427.375-.406.687a.72.72 0 00.469.657l3.312 1.375 8.969-7.907c.083-.062.167-.057.25.016.083.073.094.15.031.234L17 24.72v2.5c0 .25.078.442.234.578a.83.83 0 00.563.203z" id="newsletter"/></g></g></g></svg>
